src/assets/onboarding.svg

<svg fill="none" height="80" viewBox="0 0 80 80" width="80" xmlns="http://www.w3.org/2000/svg"><circle cx="40" cy="40" fill="#f9bef9" r="40"/><rect fill="#2a4494" height="38" rx="4" width="38" x="21" y="21"/><g fill="#fff"><path d="m51.2361 59h-22.4722c-.2026 0-.3969-.0816-.5401-.2268-.1433-.1452-.2237-.3422-.2237-.5476-.0066-1.9264.4338-3.8273 1.2856-5.5492.8519-1.7219 2.0914-3.2165 3.6182-4.3631.3789-.2883.8288-.4654 1.3003-.5119.4716-.0464.9466.0396 1.3732.2486 1.3649.7057 2.8752 1.0737 4.4074 1.0737 1.5321 0 3.0424-.368 4.4073-1.0737.428-.2138.9064-.3025 1.3813-.256.475.0465.9277.2264 1.3074.5193 1.5208 1.1322 2.7582 2.6105 3.6126 4.316s1.3019 3.5905 1.3066 5.5034c.0012.2148-.0762.4224-.2174.5826-.1411.1602-.3358.2617-.5465.2847z"/><path d="m39.9782 46.4084c-1.6981 0-3.358-.5104-4.7699-1.4669-1.4119-.9564-2.5124-2.3158-3.1622-3.9063s-.8198-3.3406-.4885-5.0291c.3312-1.6884 1.1489-3.2394 2.3496-4.4567 1.2008-1.2173 2.7306-2.0463 4.396-2.3821 1.6654-.3359 3.3917-.1635 4.9605.4953s2.9097 1.7744 3.8531 3.2058 1.4469 3.1143 1.4469 4.8358c0 1.1431-.222 2.2749-.6535 3.331-.4315 1.056-1.0639 2.0156-1.8611 2.8238-.7973.8083-1.7437 1.4494-2.7854 1.8869-1.0416.4374-2.1581.6625-3.2855.6625z"/></g></svg>

<svg width="80" height="80" viewBox="0 0 80 80" fill="none" xmlns="http://www.w3.org/2000/svg">
<circle cx="40" cy="40" r="40" fill="#F9BEF9"/>
<rect x="21" y="21" width="38" height="38" rx="4" fill="#2A4494"/>
<path d="M51.2361 59H28.7639C28.5613 59 28.367 58.9184 28.2238 58.7732C28.0805 58.628 28.0001 58.431 28.0001 58.2256C27.9935 56.2992 28.4339 54.3983 29.2857 52.6764C30.1376 50.9545 31.3771 49.4599 32.9039 48.3133C33.2828 48.025 33.7327 47.8479 34.2042 47.8014C34.6758 47.755 35.1508 47.841 35.5774 48.05C36.9423 48.7557 38.4526 49.1237 39.9848 49.1237C41.5169 49.1237 43.0272 48.7557 44.3921 48.05C44.8201 47.8362 45.2985 47.7475 45.7734 47.794C46.2484 47.8405 46.7011 48.0204 47.0808 48.3133C48.6016 49.4455 49.839 50.9238 50.6934 52.6293C51.5478 54.3348 51.9953 56.2198 52 58.1327C52.0012 58.3475 51.9238 58.5551 51.7826 58.7153C51.6415 58.8755 51.4468 58.977 51.2361 59Z" fill="white"/>
<path d="M39.9782 46.4084C38.2801 46.4084 36.6202 45.898 35.2083 44.9415C33.7964 43.9851 32.6959 42.6257 32.0461 41.0352C31.3963 39.4447 31.2263 37.6946 31.5576 36.0061C31.8888 34.3177 32.7065 32.7667 33.9072 31.5494C35.108 30.3321 36.6378 29.5031 38.3032 29.1673C39.9686 28.8314 41.6949 29.0038 43.2637 29.6626C44.8325 30.3214 46.1734 31.437 47.1168 32.8684C48.0602 34.2998 48.5637 35.9827 48.5637 37.7042C48.5637 38.8473 48.3417 39.9791 47.9102 41.0352C47.4787 42.0912 46.8463 43.0508 46.0491 43.859C45.2518 44.6673 44.3054 45.3084 43.2637 45.7459C42.2221 46.1833 41.1056 46.4084 39.9782 46.4084Z" fill="white"/>
</svg>
